static/assets/images/networks/polygon-mono.svg

<svg width="291" height="256" viewBox="0 0 291 256" fill="none" xmlns="http://www.w3.org/2000/svg">
<path d="M220.191 78.2434C214.876 75.2048 208.042 75.2048 201.968 78.2434L159.448 103.312L130.596 119.264L88.8356 144.332C83.5206 147.371 76.6871 147.371 70.6129 144.332L37.9639 124.582C32.649 121.543 28.8526 115.466 28.8526 108.629V70.6469C28.8526 64.5698 31.8897 58.4926 37.9639 54.6944L70.6129 35.7033C75.9278 32.6647 82.7614 32.6647 88.8356 35.7033L121.485 55.454C126.799 58.4926 130.596 64.5698 130.596 71.4066V96.4749L159.448 79.7627V53.9347C159.448 47.8576 156.411 41.7805 150.337 37.9822L89.5949 2.27893C84.2799 -0.759645 77.4464 -0.759645 71.3722 2.27893L9.11134 38.7419C3.03711 41.7805 0 47.8576 0 53.9347V125.341C0 131.418 3.03711 137.495 9.11134 141.294L70.6129 176.997C75.9278 180.036 82.7614 180.036 88.8356 176.997L130.596 152.688L159.448 135.976L201.209 111.668C206.524 108.629 213.357 108.629 219.431 111.668L252.08 130.659C257.395 133.697 261.192 139.774 261.192 146.611V184.593C261.192 190.671 258.155 196.748 252.08 200.546L220.191 219.537C214.876 222.576 208.042 222.576 201.968 219.537L169.319 200.546C164.004 197.507 160.207 191.43 160.207 184.593V160.285L131.355 176.997V202.065C131.355 208.142 134.392 214.22 140.466 218.018L201.968 253.721C207.283 256.76 214.117 256.76 220.191 253.721L281.692 218.018C287.007 214.979 290.804 208.902 290.804 202.065V129.899C290.804 123.822 287.766 117.745 281.692 113.947L220.191 78.2434Z" fill="black"/>
</svg>

<svg xmlns="http://www.w3.org/2000/svg" fill="none" viewBox="0 0 291 256"><path fill="#000" d="M220.191 78.243c-5.315-3.038-12.149-3.038-18.223 0l-42.52 25.069-28.852 15.952-41.76 25.068c-5.315 3.039-12.149 3.039-18.223 0l-32.65-19.75c-5.314-3.039-9.11-9.116-9.11-15.953V70.647c0-6.077 3.037-12.154 9.11-15.953l32.65-18.99c5.315-3.04 12.148-3.04 18.223 0l32.649 19.75c5.314 3.039 9.111 9.116 9.111 15.953v25.068l28.852-16.712V53.935c0-6.077-3.037-12.154-9.111-15.953L89.595 2.28C84.28-.76 77.446-.76 71.372 2.279L9.112 38.742C3.036 41.78 0 47.858 0 53.935v71.406c0 6.077 3.037 12.154 9.111 15.953l61.502 35.703c5.315 3.039 12.148 3.039 18.223 0l41.76-24.309 28.852-16.712 41.761-24.308c5.315-3.039 12.148-3.039 18.222 0l32.649 18.991c5.315 3.038 9.112 9.115 9.112 15.952v37.982c0 6.078-3.037 12.155-9.112 15.953l-31.889 18.991c-5.315 3.039-12.149 3.039-18.223 0l-32.649-18.991c-5.315-3.039-9.112-9.116-9.112-15.953v-24.308l-28.852 16.712v25.068c0 6.077 3.037 12.155 9.111 15.953l61.502 35.703c5.315 3.039 12.149 3.039 18.223 0l61.501-35.703c5.315-3.039 9.112-9.116 9.112-15.953v-72.166c0-6.077-3.038-12.154-9.112-15.952z"/></svg>
